X: 25337
T: Many A Wild Night
R: polka
M: 2/4
K: Gmajor
B,C|:DG GF/E/|DB, B,A,/B,/|CE ED|B,G, G,>B,|
DG GF/E/|DB, B,A,/B,/|CA, ED|1 G,2 G,>B,:|2 G,2 G,2||
|:GD/G/ Bd|cA AG|FD/F/ Ac|BG GD|
GD/G/ Bd|cA AG|FA ed|1 G2 GD:|2 G2 G2||

